X: 10605
T: Doutlace, The
R: reel
M: 4/4
K: Gmajor
A2 eA cAdA|BAGA BG ~G2|A2 eA cAeA|decd BA A2|
A2 eA cAdA|GABG AGEF|G2 EG FGAB|c2 BG AGEF:|
|:EAAB cABc|dBGA BcdB|cAAB cdec|dBBc dedB|
ecAB cAAB|dBBc BAGF|EFGE FGAB|1 cABG A2 GF:|2 cABG A4||

